images/POLITICA_CALIDAD/ICONS/Icon Clientes.svg

<svg width="91" height="91" viewBox="0 0 91 91" fill="none" xmlns="http://www.w3.org/2000/svg">
<circle cx="45.4114" cy="45.4114" r="45.4114" fill="white"/>
<path d="M73.1722 15.3906C80.9506 22.7878 85.7994 33.2373 85.7994 44.82C85.7994 67.2466 67.6184 85.4275 45.1919 85.4275C22.7654 85.4275 4.58447 67.2466 4.58447 44.82C4.58447 30.9213 11.5665 18.6545 22.2171 11.333" stroke="url(#paint0_linear_103_11)" stroke-width="2" stroke-miterlimit="10"/>
<path d="M68.81 17.2968C72.0965 17.2968 74.7607 14.6326 74.7607 11.3461C74.7607 8.0597 72.0965 5.39551 68.81 5.39551C65.5236 5.39551 62.8594 8.0597 62.8594 11.3461C62.8594 14.6326 65.5236 17.2968 68.81 17.2968Z" stroke="url(#paint1_linear_103_11)" stroke-width="2" stroke-miterlimit="10"/>
<path d="M23 37.8197C23 30.173 29.2154 24 36.9146 24C44.5723 24 50.8292 30.1936 50.8292 37.7888C50.8292 45.4458 44.5827 51.6394 36.8731 51.6394C29.2154 51.6291 23 45.4458 23 37.8197ZM24.5564 37.7888C24.5461 44.5698 30.0351 50.073 36.842 50.0936C43.68 50.1142 49.2624 44.6214 49.2728 37.8609C49.2728 31.0696 43.7526 25.5664 36.9146 25.5458C30.1181 25.5355 24.5668 31.0181 24.5564 37.7888Z" fill="url(#paint2_linear_103_11)"/>
<path d="M53.4233 66.9947C46.5334 67.1905 40.2869 61.9862 39.3634 55.236C39.2908 54.7311 39.2389 54.2158 39.2078 53.7005C39.1663 53.1131 39.4672 52.7318 39.9549 52.7112C40.4426 52.6906 40.7331 53.041 40.7538 53.649C40.9406 59.3583 44.6657 64.0267 50.134 65.387C57.2833 67.1698 64.4429 62.3159 65.3664 55.0505C66.2173 48.3726 61.5998 42.3232 54.876 41.3236C54.3468 41.2411 53.8072 41.2308 53.278 41.1999C52.7073 41.169 52.3546 40.8908 52.3442 40.4373C52.3338 39.9633 52.7073 39.6541 53.3092 39.6541C59.5142 39.6644 65.1693 44.2194 66.6323 50.2482C68.4482 57.7094 63.3534 65.4385 55.4156 66.7782C54.7411 66.8916 54.077 66.9225 53.4233 66.9947Z" fill="url(#paint3_linear_103_11)"/>
<path d="M52.9771 43.3332C58.8086 43.3641 63.3431 48.1046 63.094 53.8963C62.845 59.6262 57.5842 64.0473 51.8461 63.3568C46.4089 62.6972 42.5489 58.0907 42.8706 52.6391C42.9017 52.1547 43.2234 51.8249 43.6592 51.8352C44.095 51.8455 44.4271 52.1753 44.4167 52.67C44.3959 53.8654 44.4997 55.0402 44.9044 56.1842C46.1703 59.822 49.9265 62.2541 53.6827 61.8522C57.8229 61.4194 60.9773 58.4205 61.4649 54.4528C62.0875 49.3825 58.2172 44.9614 53.0809 44.879C52.7696 44.879 52.4687 44.8893 52.1574 44.8687C51.732 44.8378 51.4311 44.508 51.4311 44.1061C51.4311 43.7042 51.7216 43.3744 52.147 43.3332C52.4272 43.3126 52.697 43.3332 52.9771 43.3332Z" fill="url(#paint4_linear_103_11)"/>
<path d="M52.6243 49.8359C53.3403 49.0424 54.16 48.5478 55.1665 48.455C57.304 48.2592 59.0058 50.0627 58.7567 52.2577C58.5077 54.4116 57.3456 56.0811 55.7165 57.4105C55.0005 57.9876 54.1185 58.3689 53.3092 58.843C52.7281 59.1728 52.1782 59.08 51.5971 58.7915C49.8746 57.9464 48.5776 56.6479 47.5607 55.0608C47.0626 54.2776 46.6683 53.4635 46.5334 52.536C46.2948 50.9283 46.9485 49.4856 48.2559 48.8054C49.553 48.1252 51.2132 48.4241 52.3649 49.5474C52.4479 49.6195 52.5206 49.702 52.6243 49.8359ZM57.2729 52.1135C57.2314 51.1551 56.9824 50.547 56.3287 50.176C55.6853 49.8153 55.0005 49.8875 54.4506 50.2997C54.0148 50.6295 53.7346 51.1448 53.3507 51.5364C53.1535 51.7425 52.9045 51.9486 52.6347 52.0207C52.2923 52.1032 52.0329 51.8661 51.8772 51.5364C51.7735 51.3199 51.6593 51.1035 51.5141 50.9077C50.9226 50.1039 49.8642 49.7535 49.0756 50.0833C48.2767 50.4234 47.8409 51.3199 48.1003 52.3711C48.6917 54.7311 50.2274 56.3284 52.3753 57.3796C52.5102 57.4517 52.7592 57.3899 52.9149 57.3178C54.71 56.5345 56.0278 55.2567 56.8371 53.4841C57.0758 52.9894 57.1795 52.4226 57.2729 52.1135Z" fill="url(#paint5_linear_103_11)"/>
<path d="M26.2789 37.7888C26.3931 31.7498 31.1765 27.1432 37.1948 27.2669C43.0366 27.3905 47.6437 32.2238 47.5296 38.1083C47.4154 43.8897 42.5282 48.4653 36.593 48.352C30.9067 48.2489 26.1751 43.4053 26.2789 37.7888ZM27.8354 37.83C27.8976 42.9209 31.9444 46.8783 37.0495 46.8267C42.0509 46.7752 46.0458 42.6736 45.9835 37.6548C45.9212 32.7597 41.8019 28.7818 36.8524 28.823C31.8406 28.8642 27.7731 32.9246 27.8354 37.83Z" fill="url(#paint6_linear_103_11)"/>
<path d="M32.2349 41.2824C32.2868 40.9629 32.349 40.4888 32.4528 40.0148C32.5358 39.6129 32.4528 39.3037 32.1311 39.0255C31.8095 38.7575 31.5086 38.4586 31.2284 38.1495C30.6785 37.5518 30.5332 36.8407 30.7926 36.0884C31.0624 35.3052 31.6435 34.7693 32.4632 34.7487C33.7291 34.7177 34.5177 34.2128 34.9327 32.9864C35.2129 32.1723 35.9392 31.7704 36.8109 31.7807C37.6825 31.791 38.3984 32.1929 38.6786 33.007C39.0833 34.2231 39.8719 34.6971 41.1066 34.7384C41.9575 34.7693 42.5489 35.3052 42.8187 36.109C43.0989 36.9128 42.9536 37.7167 42.2792 38.2216C41.2208 39.0151 40.9406 39.922 41.3245 41.1793C41.5528 41.9213 41.1897 42.6118 40.5671 43.0858C39.9134 43.5805 39.1767 43.6732 38.4088 43.3538C38.0041 43.1786 37.6202 42.9725 37.2467 42.7561C36.9354 42.5706 36.6448 42.5809 36.3335 42.7664C35.9289 42.9931 35.5138 43.2301 35.078 43.4053C33.698 43.9824 32.2038 42.9519 32.2349 41.2824ZM34.0923 39.6953C34.0093 40.19 33.8951 40.7568 33.8225 41.3339C33.7602 41.8698 34.1338 42.1171 34.6215 41.8904C35.0158 41.7049 35.3997 41.4885 35.7836 41.2824C36.4684 40.9217 37.1429 40.9217 37.8277 41.2721C38.2117 41.4782 38.5956 41.7049 38.9899 41.8595C39.1767 41.9316 39.4672 41.9419 39.6021 41.8389C39.737 41.7358 39.8096 41.4473 39.7992 41.2514C39.7785 40.8495 39.6747 40.4579 39.6021 40.0663C39.4568 39.2934 39.6436 38.6338 40.2039 38.0773C40.5048 37.7785 40.8265 37.5105 41.0963 37.1911C41.2312 37.0262 41.3868 36.7273 41.3245 36.583C41.2415 36.3975 40.9614 36.243 40.7435 36.1914C40.3388 36.0884 39.9134 36.0575 39.4983 35.9956C38.7512 35.8823 38.2324 35.47 37.9004 34.8105C37.7032 34.4189 37.5268 34.0273 37.3193 33.646C37.0495 33.1513 36.593 33.1616 36.3232 33.6563C36.0949 34.0685 35.9081 34.491 35.6902 34.9032C35.3685 35.5113 34.8705 35.8823 34.1857 35.9956C33.7187 36.0678 33.2518 36.1193 32.7952 36.212C32.2349 36.3151 32.1 36.7479 32.4839 37.1602C32.7952 37.4899 33.1273 37.7888 33.4489 38.1083C33.864 38.5205 34.0715 39.0358 34.0923 39.6953Z" fill="url(#paint7_linear_103_11)"/>
<defs>
<linearGradient id="paint0_linear_103_11" x1="4.58447" y1="85.4292" x2="85.7994" y2="85.4292" gradientUnits="userSpaceOnUse">
<stop stop-color="#1723FF"/>
<stop offset="1" stop-color="#30E35E"/>
</linearGradient>
<linearGradient id="paint1_linear_103_11" x1="62.8594" y1="17.2971" x2="74.7607" y2="17.2971" gradientUnits="userSpaceOnUse">
<stop stop-color="#1723FF"/>
<stop offset="1" stop-color="#30E35E"/>
</linearGradient>
<linearGradient id="paint2_linear_103_11" x1="23" y1="67.001" x2="67" y2="67.001" gradientUnits="userSpaceOnUse">
<stop stop-color="#1723FF"/>
<stop offset="1" stop-color="#30E35E"/>
</linearGradient>
<linearGradient id="paint3_linear_103_11" x1="23" y1="67.001" x2="67" y2="67.001" gradientUnits="userSpaceOnUse">
<stop stop-color="#1723FF"/>
<stop offset="1" stop-color="#30E35E"/>
</linearGradient>
<linearGradient id="paint4_linear_103_11" x1="23" y1="67.001" x2="67" y2="67.001" gradientUnits="userSpaceOnUse">
<stop stop-color="#1723FF"/>
<stop offset="1" stop-color="#30E35E"/>
</linearGradient>
<linearGradient id="paint5_linear_103_11" x1="23" y1="67.001" x2="67" y2="67.001" gradientUnits="userSpaceOnUse">
<stop stop-color="#1723FF"/>
<stop offset="1" stop-color="#30E35E"/>
</linearGradient>
<linearGradient id="paint6_linear_103_11" x1="23" y1="67.001" x2="67" y2="67.001" gradientUnits="userSpaceOnUse">
<stop stop-color="#1723FF"/>
<stop offset="1" stop-color="#30E35E"/>
</linearGradient>
<linearGradient id="paint7_linear_103_11" x1="23" y1="67.001" x2="67" y2="67.001" gradientUnits="userSpaceOnUse">
<stop stop-color="#1723FF"/>
<stop offset="1" stop-color="#30E35E"/>
</linearGradient>
</defs>
</svg>

<svg xmlns="http://www.w3.org/2000/svg" width="91" height="91" fill="none"><circle cx="45.411" cy="45.411" r="45.411" fill="#fff"/><path stroke="url(#a)" stroke-miterlimit="10" stroke-width="2" d="M73.172 15.39C80.951 22.789 85.8 33.238 85.8 44.82c0 22.427-18.18 40.607-40.607 40.607S4.584 67.248 4.584 44.82c0-13.899 6.982-26.166 17.633-33.487"/><path stroke="url(#b)" stroke-miterlimit="10" stroke-width="2" d="M68.81 17.297a5.95 5.95 0 1 0 0-11.902 5.95 5.95 0 0 0 0 11.902Z"/><path fill="url(#c)" d="M23 37.82C23 30.173 29.215 24 36.915 24c7.657 0 13.914 6.194 13.914 13.789 0 7.657-6.246 13.85-13.956 13.85C29.215 51.63 23 45.446 23 37.82Zm1.556-.031c-.01 6.78 5.48 12.284 12.286 12.305 6.838.02 12.42-5.473 12.43-12.233 0-6.791-5.52-12.295-12.357-12.315-6.797-.01-12.348 5.472-12.359 12.243Z"/><path fill="url(#d)" d="M53.423 66.995c-6.89.195-13.136-5.009-14.06-11.759a18.762 18.762 0 0 1-.155-1.535c-.042-.588.26-.97.747-.99.488-.02.778.33.799.938.187 5.71 3.912 10.378 9.38 11.738 7.15 1.783 14.309-3.071 15.232-10.337.851-6.677-3.766-12.727-10.49-13.726-.53-.083-1.069-.093-1.598-.124-.57-.031-.923-.31-.934-.763-.01-.474.363-.783.965-.783 6.205.01 11.86 4.565 13.323 10.594 1.816 7.461-3.279 15.19-11.216 16.53-.675.114-1.339.144-1.993.217Z"/><path fill="url(#e)" d="M52.977 43.333c5.832.031 10.366 4.772 10.117 10.563-.249 5.73-5.51 10.151-11.248 9.46-5.437-.659-9.297-5.265-8.975-10.717.03-.484.352-.814.788-.804.436.01.768.34.758.835-.021 1.195.083 2.37.487 3.514 1.266 3.638 5.022 6.07 8.779 5.668 4.14-.433 7.294-3.431 7.782-7.4.622-5.07-3.248-9.49-8.384-9.573-.311 0-.612.01-.924-.01a.761.761 0 0 1-.726-.763c0-.402.29-.732.716-.773.28-.02.55 0 .83 0Z"/><path fill="url(#f)" d="M52.624 49.836c.716-.794 1.536-1.288 2.542-1.381 2.138-.196 3.84 1.608 3.59 3.803-.248 2.154-1.41 3.823-3.04 5.152-.715.578-1.598.959-2.407 1.433-.58.33-1.13.237-1.712-.052-1.722-.845-3.02-2.143-4.036-3.73-.498-.783-.893-1.597-1.028-2.525-.238-1.608.416-3.05 1.723-3.73 1.297-.68 2.957-.382 4.109.741.083.073.156.155.26.289Zm4.649 2.278c-.042-.959-.29-1.567-.944-1.938-.644-.36-1.328-.288-1.878.124-.436.33-.716.845-1.1 1.236-.197.206-.447.413-.716.485-.343.082-.602-.155-.758-.485a3.804 3.804 0 0 0-.363-.628c-.591-.804-1.65-1.154-2.438-.825-.8.34-1.235 1.237-.976 2.288.592 2.36 2.127 3.957 4.275 5.009.135.072.384.01.54-.062 1.795-.783 3.113-2.061 3.922-3.834.239-.495.342-1.061.436-1.37Z"/><path fill="url(#g)" d="M26.279 37.789c.114-6.04 4.898-10.646 10.916-10.522 5.842.123 10.449 4.957 10.335 10.841-.115 5.782-5.002 10.357-10.937 10.244-5.686-.103-10.418-4.947-10.314-10.563Zm1.556.041c.063 5.09 4.11 9.048 9.215 8.997 5-.052 8.996-4.153 8.934-9.172-.063-4.895-4.182-8.873-9.132-8.832-5.011.041-9.079 4.102-9.017 9.007Z"/><path fill="url(#h)" d="M32.235 41.282c.052-.32.114-.793.218-1.267.083-.402 0-.711-.322-.99a9.053 9.053 0 0 1-.903-.875c-.55-.598-.695-1.31-.435-2.062.27-.783.85-1.319 1.67-1.34 1.266-.03 2.055-.535 2.47-1.762.28-.814 1.006-1.216 1.878-1.205.871.01 1.587.412 1.868 1.226.404 1.216 1.193 1.69 2.428 1.731.85.031 1.442.567 1.712 1.371.28.804.135 1.608-.54 2.113-1.058.793-1.338 1.7-.955 2.957.229.742-.134 1.433-.757 1.907-.654.495-1.39.587-2.158.268a11.191 11.191 0 0 1-1.162-.598c-.312-.185-.602-.175-.913.01-.405.227-.82.464-1.256.64-1.38.576-2.874-.454-2.843-2.124Zm1.857-1.587c-.083.495-.197 1.062-.27 1.639-.062.536.312.783.8.556.394-.185.778-.401 1.162-.608.684-.36 1.359-.36 2.044-.01.384.206.768.433 1.162.587.187.073.477.083.612-.02.135-.103.208-.392.197-.588-.02-.401-.124-.793-.197-1.185-.145-.773.042-1.432.602-1.989.3-.298.623-.566.892-.886.135-.165.29-.464.229-.608-.084-.185-.364-.34-.582-.392-.404-.103-.83-.134-1.245-.195-.747-.114-1.266-.526-1.598-1.186-.197-.391-.373-.783-.58-1.164-.27-.495-.727-.484-.997.01-.228.413-.415.835-.633 1.247-.322.608-.82.98-1.504 1.093-.467.072-.934.123-1.39.216-.561.103-.696.536-.312.948.311.33.643.629.965.948.415.413.623.928.643 1.587Z"/><defs><linearGradient id="a" x1="4.584" x2="85.799" y1="85.429" y2="85.429" gradientUnits="userSpaceOnUse"><stop stop-color="#1723FF"/><stop offset="1" stop-color="#30E35E"/></linearGradient><linearGradient id="b" x1="62.859" x2="74.761" y1="17.297" y2="17.297" gradientUnits="userSpaceOnUse"><stop stop-color="#1723FF"/><stop offset="1" stop-color="#30E35E"/></linearGradient><linearGradient id="c" x1="23" x2="67" y1="67.001" y2="67.001" gradientUnits="userSpaceOnUse"><stop stop-color="#1723FF"/><stop offset="1" stop-color="#30E35E"/></linearGradient><linearGradient id="d" x1="23" x2="67" y1="67.001" y2="67.001" gradientUnits="userSpaceOnUse"><stop stop-color="#1723FF"/><stop offset="1" stop-color="#30E35E"/></linearGradient><linearGradient id="e" x1="23" x2="67" y1="67.001" y2="67.001" gradientUnits="userSpaceOnUse"><stop stop-color="#1723FF"/><stop offset="1" stop-color="#30E35E"/></linearGradient><linearGradient id="f" x1="23" x2="67" y1="67.001" y2="67.001" gradientUnits="userSpaceOnUse"><stop stop-color="#1723FF"/><stop offset="1" stop-color="#30E35E"/></linearGradient><linearGradient id="g" x1="23" x2="67" y1="67.001" y2="67.001" gradientUnits="userSpaceOnUse"><stop stop-color="#1723FF"/><stop offset="1" stop-color="#30E35E"/></linearGradient><linearGradient id="h" x1="23" x2="67" y1="67.001" y2="67.001" gradientUnits="userSpaceOnUse"><stop stop-color="#1723FF"/><stop offset="1" stop-color="#30E35E"/></linearGradient></defs></svg>
